pix_core/i/cohort.svg

<!DOCTYPE svg PUBLIC "-//W3C//DTD SVG 1.1//EN" "http://www.w3.org/Graphics/SVG/1.1/DTD/svg11.dtd" [
	<!ENTITY ns_flows "http://ns.adobe.com/Flows/1.0/">
]><svg xmlns="http://www.w3.org/2000/svg" width="16" height="16" viewBox="0 0 16 16" preserveAspectRatio="xMinYMid meet" overflow="visible"><path d="M8 4c1.6 0 2.9 1.7 2.9 3.8 0 1.4-.9 2.5-.9 2.5-.3.4-.2 1 .3 1.2l3.6 1.7c.5.3 1.1.9 1.1 1.5v1.3h-14v-1.2c0-.5.6-1.2 1.1-1.5l3.6-1.8c.5-.3.6-.8.3-1.3 0 0-.9-1.1-.9-2.5 0-2 1.3-3.7 2.9-3.7zm3.9 3.8c0 1.1-.4 2.1-.4 2.1-.2.5 0 1.1.5 1.4l1.5.7h2.5v-3.6l-1.7-.8c-.5-.3-.6-.8-.3-1.2 0 0 .9-1.1.9-2.5 0-2.2-1.3-3.9-2.9-3.9-1.5 0-2.6 1.4-2.8 3.2 1.5.7 2.7 2.4 2.7 4.6zm-10.2-.2l-1.7.8v3.6h2.6l1.4-.7c.5-.3.8-.9.5-1.4 0 0-.4-1-.4-2.1 0-2.1 1.2-3.9 2.8-4.6-.3-1.8-1.4-3.2-2.9-3.2-1.6 0-2.9 1.7-2.9 3.8 0 1.4.9 2.5.9 2.5.3.4.2 1-.3 1.3z" fill="#999"/></svg>

<!DOCTYPE svg PUBLIC "-//W3C//DTD SVG 1.1//EN" "http://www.w3.org/Graphics/SVG/1.1/DTD/svg11.dtd" [
	<!ENTITY ns_flows "http://ns.adobe.com/Flows/1.0/">
]><svg xmlns="http://www.w3.org/2000/svg" width="16" height="16" viewBox="0 0 16 16" preserveAspectRatio="xMinYMid meet" overflow="visible"><path d="M8 4c1.6 0 2.9 1.7 2.9 3.8 0 1.4-.9 2.5-.9 2.5-.3.4-.2 1 .3 1.2l3.6 1.7c.5.3 1.1.9 1.1 1.5V16H1v-1.2c0-.5.6-1.2 1.1-1.5l3.6-1.8c.5-.3.6-.8.3-1.3 0 0-.9-1.1-.9-2.5C5.1 5.7 6.4 4 8 4zm3.9 3.8c0 1.1-.4 2.1-.4 2.1-.2.5 0 1.1.5 1.4l1.5.7H16V8.4l-1.7-.8c-.5-.3-.6-.8-.3-1.2 0 0 .9-1.1.9-2.5C14.9 1.7 13.6 0 12 0c-1.5 0-2.6 1.4-2.8 3.2 1.5.7 2.7 2.4 2.7 4.6zM1.7 7.6L0 8.4V12h2.6l1.4-.7c.5-.3.8-.9.5-1.4 0 0-.4-1-.4-2.1 0-2.1 1.2-3.9 2.8-4.6C6.6 1.4 5.5 0 4 0 2.4 0 1.1 1.7 1.1 3.8c0 1.4.9 2.5.9 2.5.3.4.2 1-.3 1.3z" fill="#999"/></svg>
